X:37
T:Levo Lou Ped Droullotto
R:Bourre
M:3/8
L:1/8
N:La Bourre 4th edition 1929, page 48
Z:Steve Mansfield www.lesession.co.uk June 2012
K:C
(d/e/) c e | d2 e | d c2 | | (d/e/) c e | 
d c2 | d3 :| A/B/ c A | d2 c/ B/ | 
A G2 | A/ B/ c A | d2 c/ B/ | c3 |]

